X:1
T:Good Shepherd, 11.11.11.11
T:Good Shepherd, 11.11.11.11
T:Joseph Barnby (1838-1896)
T:Public Domain Courtesy of the Cyber Hymnal™
C:Joseph Barnby (1838-1896)
Z:Public Domain
Z:Courtesy of the Cyber Hymnal™
%%score ( 1 2 ) ( 3 4 )
L:1/8
Q:1/4=115
M:3/4
K:D
V:1 treble 
V:2 treble 
V:3 bass 
V:4 bass 
V:1
 [FA]2 | [Fd]2 [DA]2 [CF]2 | [CE]2 D2 [DE]2 | [DF]2 [DA]2 [CE]2 | [DF]4 D2 | [DG]2 [DG]2 [DF]2 | %6
 [DE]2 [EB]2 A2 | [Fd]2 [^Gc]2 [GB]2 | A4 A2 | [Ae]2 [Ac]2 [EA]2 | [DB]2 [DA]2 [CA]2 | %11
 [Dd]2 [FB]2 [FA]2 | G4 [CB]2 | [DA]2 [DF]2 [CE]2 | D2 [DE]2 [DG]2 | [DF]2 [A,D]2 [CE]2 | D4 |] %17
V:2
 x2 | x6 | x2 D2 x2 | x6 | x4 D2 | x6 | x4 A2 | x6 | A4 A2 | x6 | x6 | x6 | G4 x2 | x6 | D2 x4 | %15
 x6 | D4 |] %17
V:3
 [D,A,]2 | [D,A,]2 [D,F,]2 [A,,A,]2 | [B,,G,]2 [B,,F,]2 [G,,B,]2 | [A,,A,]2 [A,,F,]2 [A,,G,]2 | %4
 [D,F,]4 D,2 | [B,,D,]2 [B,,G,]2 [A,,A,]2 | [G,,B,]2 [G,C]2 [F,D]2 | [B,D]2 [E,E]2 [E,D]2 | %8
 [A,C]4 A,2 | [G,C]2 [A,E]2 [G,C]2 | [F,D]2 [F,A,]2 [E,G,]2 | [D,F,]2 [D,D]2 [^D,=C]2 | %12
 [E,B,]4 [E,G,]2 | [F,A,]2 [F,A,]2 [F,,G,^A,]2 | [B,,B,]2 [G,,E,B,]2 [E,,E,B,]2 | %15
 [A,,A,]2 [A,,F,]2 [A,,G,]2 | [D,F,]4 |] %17
V:4
 x2 | x6 | x6 | x6 | x4 D,2 | x6 | x6 | x6 | x4 A,2 | x6 | x6 | x6 | x6 | x6 | x6 | x6 | x4 |] %17

